X: 35333
T: Roses For The Lady
R: reel
M: 4/4
K: Amajor
L:1/4
M:4/4
K:A
V:1
|:c3/2 A/ E c|B G E B|d3/2 B/ E d|c B A c|
e3/2 c/ A a|g f d f|e d c B|1 A G A B:|2 A G A2||
f3/2 d/ A f|e c ^A e|d3/2 B/ F d|c ^A F E|
D A f g|a c A E|D F B A|G B e =f|
f3/2 d/ A f|e c ^A e|d f f e/d/|c ^A F E|
D A f g|a c A F|E A c B|A4||

